img/checkbox-on.svg

<svg width="24" height="23" viewBox="0 0 24 23" fill="none" xmlns="http://www.w3.org/2000/svg">
<path fill-rule="evenodd" clip-rule="evenodd" d="M3.16241 0H20.1624C21.8124 0 23.1624 1.35 23.1624 3V20C23.1624 21.65 21.8124 23 20.1624 23H3.16241C1.51241 23 0.162415 21.65 0.162415 20V3C0.162415 1.35 1.51241 0 3.16241 0ZM21.1624 3C21.1624 2.458 20.7044 2 20.1624 2H3.16241C2.62041 2 2.16241 2.458 2.16241 3V20C2.16241 20.542 2.62041 21 3.16241 21H20.1624C20.7044 21 21.1624 20.542 21.1624 20V3Z" fill="#B5B5B5"/>
</svg>

<svg width="24" height="23" fill="none" xmlns="http://www.w3.org/2000/svg"><path fill-rule="evenodd" clip-rule="evenodd" d="M3.16 0h17a3 3 0 013 3v17a3 3 0 01-3 3h-17a3 3 0 01-3-3V3a3 3 0 013-3zm18 3c0-.54-.46-1-1-1h-17c-.54 0-1 .46-1 1v17c0 .54.46 1 1 1h17c.54 0 1-.46 1-1V3z" fill="#B5B5B5"/></svg>
